storage/app/icons/phosphoricons/duotone/speaker-simple-low-duotone.svg

<svg xmlns="http://www.w3.org/2000/svg" fill="currentColor" viewBox="0 0 256 256"><path d="M160 32v192l-72-56H40a8 8 0 0 1-8-8V96a8 8 0 0 1 8-8h48Z" opacity=".2"/><path d="M163.51 24.81a8 8 0 0 0-8.42.88L85.25 80H40a16 16 0 0 0-16 16v64a16 16 0 0 0 16 16h45.25l69.84 54.31A8 8 0 0 0 168 224V32a8 8 0 0 0-4.49-7.19M152 207.64l-59.09-45.95A7.94 7.94 0 0 0 88 160H40V96h48a7.94 7.94 0 0 0 4.91-1.69L152 48.36ZM208 104v48a8 8 0 0 1-16 0v-48a8 8 0 0 1 16 0"/></svg>

<svg xmlns="http://www.w3.org/2000/svg" viewBox="0 0 256 256" fill="currentColor"><path d="M160,32V224L88,168H40a8,8,0,0,1-8-8V96a8,8,0,0,1,8-8H88Z" opacity="0.2"/><path d="M163.51,24.81a8,8,0,0,0-8.42.88L85.25,80H40A16,16,0,0,0,24,96v64a16,16,0,0,0,16,16H85.25l69.84,54.31A8,8,0,0,0,168,224V32A8,8,0,0,0,163.51,24.81ZM152,207.64,92.91,161.69A7.94,7.94,0,0,0,88,160H40V96H88a7.94,7.94,0,0,0,4.91-1.69L152,48.36ZM208,104v48a8,8,0,0,1-16,0V104a8,8,0,0,1,16,0Z"/></svg>
